**kern
*staff1
*I"Piano
=1- 	=1-
*clefG2
*k[b-e-a-]
*E-:
*M4/4
1r
=2 	=2
1r
=3 	=3
1r
=4 	=4
1r
=5 	=5
1r
=6 	=6
1r
=7 	=7
1r
=8 	=8
2r
4r
8cc-\L
8an\J
=9|| 	=9||
8b-/L	2E-:maj
8g/J
4r
2r	2E-:maj:6
=10 	=10
8b-/L	2E-:maj
8g/J
4r
2r	2E-:maj
=11 	=11
!!linebreak:original
8r	2A:min
8en/L
8an/
8cc/J
8bn/L	2E:aug
8a/
8a-/
8e/J
=12 	=12
8g/L	
8f/
8f#/
[8dd/J
4dd\]
16cc\LL
16dd\
16cc\
16an\JJ
=13 	=13
8b-/L
8g/J
4r
2r
=14 	=14
8b-/L
8g/J
4r
2r
=15 	=15
!!linebreak:original
8r
8d/L
8g/
8b-/J
8an/L
8g/
8f#/
8d/J
=16 	=16
8f/L
8e-/
8en/
[8cc/J
4cc\]
8b-/L
8g#/J
=17 	=17
8an/L
8f/J
4r
2r
=18 	=18
12an/L
12b-/
12a/J
8f/
8r
2r
=19 	=19
!!linebreak:original
8r
8c/L
8f/
8a-/J
8g/L
8f/
8en/
8c/J
=20 	=20
8e-/L
8c#/
8d/
[8b-/J
4b-\]
8.a-/L
16f#/Jk
=21 	=21
8g/
8r
8dd\L
[8ff\J
4ff\]
8dd\L
8b-\J
=22 	=22
24een\LL
24ff\
24ee\J
8cc#\J
4r
2r
=23 	=23
!!linebreak:original
4f/
8cc\L
[8ee-\J
8ee-\]
4cc\
8r
=24 	=24
8dd\L
8bn\J
4r
4r
16b\LL
16cc#\
16b\
16an\JJ
=25 	=25
8.b-/L
16g/Jk
4r
4r
8.r
16e-/
=26 	=26
8.b-/L
16g/Jk
4r
2r
=27 	=27
!!linebreak:original
8r
8en/L
8an/
8cc/J
8bn/L
8a/
8g#/
8e/J
=28 	=28
8g/L
8f/
8f#/
[8dd/J
(4dd\]
12dd\L)
12cc\
12an\J
=29 	=29
8b-/L
8g/J
4r
2r
=30 	=30
8b-/L
8g/J
4r
2r
=31 	=31
!!linebreak:original
8r
8d/L
8g/
8b-/J
8an/L
8g/
8f#/
8d/J
=32 	=32
8f/L
8d#/
8en/
[8cc/J
4cc\]
8.b-/L
16g#/Jk
=33 	=33
8an/L
8f/J
4r
2r
=34 	=34
12an/L
12b-/
12a/J
8f/
8r
2r
=35 	=35
!!linebreak:original
8r
8c/L
8f/
8a-/J
8g/L
8f/
8en/
8c/J
=36 	=36
8e-/L
8c#/
8d/
[8b-/J
4b-\]
8.a-/L
16en/Jk
=37 	=37
4.f/
8g/
8a-/
4b-\
(8cc-\
=38 	=38
!!pagebreak:original
8cc-\L)
8dd-\
8ee-\
[8ff\J
4ff\]
8.bn/L
16an/Jk
=39 	=39
8b-/L
8g/J
4r
2r
=40 	=40
1r
=41|| 	=41||
8ccc\
4bb-\
8aa-\
8gg\L
8ff\
8ee-\
8dd\J
=42 	=42
!!linebreak:original
8ff\L
8ee-\
8dd\
8cc\J
8b-\L
8an\
8cc\
8b-\J
=43 	=43
24an/LL
24b-/
24a/J
8g/J
8f#/L
8d/J
8en/L
8fn/
8f#/
8a/J
=44 	=44
8cc\
4dd\
[8ee-\
8ee-\]
4dd\
8cc\
=45 	=45
8b-\
4g/
8r
2r
=46 	=46
!!linebreak:original
4r
8r
8d/
8e-/L
8f/
8g/
8a-/J
=47 	=47
8b-/L
8a-/
8g/
8f/J
12en/L
12g/
12b-/J
8dd\L
8an\J
=48 	=48
8cc\L
8b-\J
8r
8f#/
8an/L
8a-/
8en/
8d-/J
=49 	=49
!!linebreak:original
2g/
8f/
4e-/
8f/
=50 	=50
16dd\LL
16cc#\JJ
8r
8r
16an/LL
16f#/JJ
8e-/
8r
4r
=51 	=51
2r
4r
8r
8g/
=52 	=52
!!linebreak:original
12a-\L
12cc\
12ee-\J
4gg\
ggq/
8ff#\L
24dd\L
24dd-\
24cc\JJ
4bn\
=53 	=53
4b-\
4r
8r
8g\L
8b-\
8ee-\J
=54 	=54
8gg\L
8bb-\
8gg\J
8r
4aan\
4r
=55 	=55
!!linebreak:original
8r
24gg\LL
24aa-\
24ff\JJ
8ff\L
8ff\J
8een\L
8gg\
8ff\
8dd\J
=56 	=56
16ee-\LL
16ff\
16ee-\
16cc#\JJ
8dd\L
8g\J
8a-/L
8cc#/
8g/
8f/J
=57 	=57
8b-/L
8g/
8d/J
8r
8f/L
(8e-/J
12e-/L)
12g/
12b-/J
=58 	=58
!!linebreak:original
8dd\L
8ff\
8een\
[8ee-\J
4ee-\]
8dd\L
8an\J
=59 	=59
8cc/L
8b-/
8an/
8g/J
8f#/L
8d/
8e-/
8fn/J
=60 	=60
8f#/
4an/
[8cc\
8cc\L]
8ee-\
8dd\
8cc\J
=61 	=61
8b-/L
8g/J
4r
2r
=62 	=62
!!linebreak:original
1r
=63 	=63
16gg\LK
8bb-\
[16ddd-\Jk
8ddd-\L]
16ccc\L
16bb-\JJ
16aa-\LL
16gg\
16bb-\
16aa-\JJ
16gg\LL
16ff\
16een\
16dd-\JJ
=64 	=64
!!pagebreak:original
q0.222917b-/LL
q0.222917a-/
q0.222917g/
q0.222917a-/
q0.222917b-/
q0.222917a-/
q0.222917g/
q0.222917g-/
q0.222917f/JJ
16en/
16r
16b-\LL
16dd-\JJ
16cc/LL
16b-/
16gn/
16an/JJ
=65 	=65
!!linebreak:original
16b-/LL
16a-/
16an/
16b-/JJ
16cc\LL
16dd\
16ee-\
16ff\JJ
16gg\LL
16ff\
16ee-\
16dd\JJ
16cc/LL
16b-/
16a-/
16g/JJ
=66 	=66
!!linebreak:original
16f/LL
16e-/
16en/
16g/JJ
12f/L
24f#/L
24g/
24g#/
24an/JJ
24b-\LL
24cc\
24dd-\
24ddn\
24ee-\
24een\JJ
16ff\LL
16dd\
32ee-\L
32ff\
32ee-\
32cc#\JJJ
=67 	=67
!!linebreak:original
16dd\LL
16g\
16a-\
16cc\JJ
16g/LL
16a-/
16b-/
16g/JJ
16a-/LL
16c/
24f/
24a-/
24g/JJ
16f/
16r
16e-/LL
[16f/JJ
=68 	=68
8f/]
4e-/
[8d/
4d/]
4r
=69 	=69
4r
8r
8g/
8a-\L
8cc\
8ee-\
[8gg\J
=70 	=70
!!linebreak:original
8gg\]
4gg\
[8gg\
4gg\]
8.dd\L
16b-\Jk
=71 	=71
8ff\
4ee-\
8b-\
8.dd\L
16cc\Jk
8.b-/L
16g/Jk
=72 	=72
8a-/
8r
4r
2r
=73|| 	=73||
2r
8ccc\L
8bbn\J
4bb-\
=74 	=74
!!linebreak:original
8bb-\
4cc\
8ee-\
4bb-\
(16aanQ/LL
16ggQ/JJ
8ff\L)
8ee-\J
=75 	=75
8een\
4.dd\
8ee-\L
8dd\
8cc\
8b-\J
=76 	=76
8an/L
8g/
8f#/
8d/J
8e-/L
8f#/
8a/
8cc/J
=77 	=77
8b-/L
8g/
8d/J
8r
4f/
8e-/L
[8b-/J
=78 	=78
!!linebreak:original
4b-\]
4r
2r
=79 	=79
4r
8g/L
8f/J
8en/L
8g/
8b-/
8dd/J
=80 	=80
8r
4.aan\
8aa-\
4een\
[8gg\
=81 	=81
4gg\]
8ee-\
8r
8dd\L
8cc\
8b-\
8g#\J
=82 	=82
4an/
4r
2r
=83 	=83
!!linebreak:original
8ccc\L
8eee-\J
16ddd\LL
16ccc\J
8bb-\J
16ccc\LL
16ccc\
16bbn\
16bb-\JJ
16aa-\LL
16gg\
16bb-\
16aa-\JJ
=84 	=84
!!pagebreak:original
16gg\LL
16ff\
24een\
24ff\
24gg\JJ
16ff\LL
16dd\
32ee-\L
32ff\
32ee-\
32cc#\JJJ
16dd\LL
16g\
16a-\
16cc#\JJ
16g/LL
16a-/
16b-/
16g/JJ
=85 	=85
8a-/L
8g/J
16dd\LK
[8.ff\J
8ff\]
8r
4r
=86 	=86
!!linebreak:original
24een\LL
24ff\
24ee\J
[8dd-\J
8dd-\]
8r
2r
=87 	=87
4f/
8cc\L
[8ee-\J
4ee-\]
4cc\
=88 	=88
24dd\LL
24ee-\
24dd\J
8bn\J
4r
4r
8r
8an/
=89 	=89
8b-/L
8g/
8d/
8c/J
8f/L
(8e-/J
12e-/L)
12g/
12b-/J
=90 	=90
!!linebreak:original
8dd\L
8ff\
8een\
8ee-\J
8dd\L
8g\
8b-\
8bn\J
=91 	=91
8cc/L
8b-/
8a-/
8g/J
8f#/L
8d/
8e-/
8fn/J
=92 	=92
8f#/L
8an/
8cc/
[8dd/J
8dd\]
4ee-\
8dd\
=93 	=93
!!linebreak:original
16cc\LL
16dd\
16cc\
16b-\JJ
8g/
8r
8b-\
4g/
8r
=94 	=94
1r
=95 	=95
1r
=96 	=96
gq/
8a-/L
8e-/
8en/
8g/J
8b-\L
8dd-\
8cc\
8b-\J
=97 	=97
8an/L
8d/
8e-/
8g/J
8d/L
8c/
8f/
8d/J
=98 	=98
!!linebreak:original
8e-/L
8An/J
4r
2r
=99 	=99
8r
8G/L
8A-/
8c/J
4e-/
8g/L
[8b-/J
=100 	=100
8b-\]
4.a-/
2r
=101 	=101
4f/
4a-/
8cc\
4ee-\
[8gg\
=102 	=102
8gg\L]
8ee-\J
4cc-\
2r
=103 	=103
!!linebreak:original
8gg\L
8ee-\
8b-\J
8r
8gg\L
8ee-\
8an\
8g\J
=104 	=104
8.a-/L
16an/Jk
8gg\
8r
4a/
8.a-/L
16f#/Jk
=105|| 	=105||
8g/
8r
8ff\L
8dd\J
8ff\L
8b-\
8g\J
8r
=106 	=106
8a-/L
8f#/J
4g/
2r
=107 	=107
!!linebreak:original
4r
8r
8en/
8an\L
8bn\
8cc\
8dd\J
=108 	=108
24een\LL
24ff\
24ee\J
8dd\J
8cc\L
8bn\J
8an/L
8g/
8f#/
8en/J
=109 	=109
4e-/
8cc\L
8an\J
8b-/L
8g/
8d/J
8r
=110 	=110
!!linebreak:original
8f/
4d/
8r
2r
=111 	=111
2r
8gg\L
8ff#\
8dd\
8ffn\J
=112 	=112
4een\
8.b-\L
16dd\Jk
4cc\
8.b-/L
16g#/Jk
=113 	=113
8an\L
8cc\
8ee-\
[8gg\J
8gg\]
4bb-\
[8aan\
=114 	=114
8aa\]
4ee-\
8r
2r
=115 	=115
!!pagebreak:original
8r
16aan\LL
16aa\JJ
8gg\L
8ff\J
8een\L
8gg\
8ff\
8dd\J
=116 	=116
16ee-\LL
16ff\
16ee-\
16cc#\JJ
8dd\L
8g\J
8a-/L
8cc#/
8g/J
8r
=117 	=117
4.b-\
8g/
8e-/
4c/
[8an/
=118 	=118
!!linebreak:original
8a/]
4.an/
4a-/
4r
=119 	=119
4r
8r
8g/
8a-\L
8cc\
8ee-\
8gg\J
=120 	=120
8aa-\
4aan\
[8bb-\
8bb-\L]
8ddd-\
8bbn\
8aa\J
=121 	=121
8bb-\L
8gg\
8dd\
8b-\J
8ff\L
8ee-\J
8r
8b-\
=122 	=122
!!linebreak:original
8dd\L
8cc\
8b-\
8a-\J
8g/L
8e-/
8f/
8e-/J
=123 	=123
8en/L
8an/
8cc/
[8een/J
8ee\L]
8cc\
8a\J
8r
=124 	=124
8bn\
4b-\
8f#/
4.an/
8a-/
=125 	=125
8g/
8r
8b-/L
8g/J
2r
=126 	=126
!!linebreak:original
2r
4r
8.r
16b-\
=127 	=127
24cc\LL
24dd-\
24cc\J
8b-\J
24cc\LL
24dd-\
24cc\J
8b-\J
24cc\LL
24ddn\
24cc\J
8b-\J
24cc\LL
24dd\
24cc\J
8b-\J
=128 	=128
(cc#q/
8dd\L)
8ccn\
8b-\
8a-\J
8g/L
8f/
8en/
8d/J
=129 	=129
!!linebreak:original
16e-/
16r
16g/LL
16b-/JJ
8dd\L
[8ff\J
8ff\]
8r
4r
=130 	=130
1r
=131 	=131
!!linebreak:original
16ccc\LL
16ccc\
16bbn\
16bb-\JJ
16aa-\LL
16aan\
16bb-\
16aa-\JJ
16gg\LL
16ff\
24ee-\
24een\
24gg\JJ
16ff\LL
16dd\
32ee-\L
32ff\
32ee-\
32cc#\JJJ
=132 	=132
!!linebreak:original
16dd\LL
16g\
16a-\
16cc\JJ
16g/LL
16a-/
16b-/
16g/JJ
16a-/LL
16c/
16f/
16a-/JJ
16g/LL
16f/
16en/JJ
16r
=133 	=133
8f/L
16e-/L
16f/JJ
16a-\LL
16b-\
16bn\
16cc\JJ
16dd-\LL
16ee-\J
[8ff\J
4ff\_
=134 	=134
!!linebreak:original
12ff\L]
12ee-\
12dd-\J
2.cc-\
=135 	=135
8b-/L
8g/
8d/
8c/J
4f/
8e-/L
8g/J
=136 	=136
8b-\
4g/
8r
2r
== 	==
*-
